localPackages/DesignSystem/Sources/DesignSystem/Resources/Assets.xcassets/IconSet/ic-tag-plus.imageset/ic-tag-plus.svg

<svg width="24" height="24" viewBox="0 0 24 24" fill="none" xmlns="http://www.w3.org/2000/svg">
<g id="ic-tag-plus">
<path id="Icon" fill-rule="evenodd" clip-rule="evenodd" d="M20.25 1.5C20.25 1.08579 19.9142 0.75 19.5 0.75C19.0858 0.75 18.75 1.08579 18.75 1.5V3.75H16.5C16.0858 3.75 15.75 4.08579 15.75 4.5C15.75 4.91421 16.0858 5.25 16.5 5.25L18.75 5.25V7.5C18.75 7.91421 19.0858 8.25 19.5 8.25C19.9142 8.25 20.25 7.91421 20.25 7.5V5.25L22.5 5.25C22.9142 5.25 23.25 4.91421 23.25 4.5C23.25 4.08579 22.9142 3.75 22.5 3.75L20.25 3.75V1.5ZM20.3343 14.1377L12.9096 21.5623L3.2727 11.9253L3.2727 4.50072L10.6973 4.50072L20.3343 14.1377ZM13.9703 22.6229C13.3845 23.2087 12.4348 23.2087 11.849 22.6229L2.21204 12.986C1.93074 12.7047 1.77271 12.3232 1.77271 11.9253V4.50072C1.77271 3.67229 2.44428 3.00072 3.2727 3.00072L10.6973 3.00072C11.0951 3.00072 11.4767 3.15876 11.758 3.44006L21.3949 13.077C21.9807 13.6628 21.9807 14.6125 21.3949 15.1983L13.9703 22.6229ZM8.52243 8.25C8.52243 9.07843 7.85086 9.75 7.02243 9.75C6.194 9.75 5.52243 9.07843 5.52243 8.25C5.52243 7.42157 6.194 6.75 7.02243 6.75C7.85086 6.75 8.52243 7.42157 8.52243 8.25Z" fill="#0F0F0F"/>
</g>
</svg>

<svg xmlns="http://www.w3.org/2000/svg" width="24" height="24" viewBox="0 0 24 24">
  <g class="ic-tag-plus">
    <path fill-rule="evenodd" d="M20.25 1.5a.75.75 0 0 0-1.5 0v2.25H16.5a.75.75 0 0 0 0 1.5h2.25V7.5a.75.75 0 0 0 1.5 0V5.25h2.25a.75.75 0 0 0 0-1.5h-2.25V1.5Zm.085 12.638-7.425 7.424-9.637-9.637V4.501h7.425l9.637 9.637Zm-6.364 8.485a1.5 1.5 0 0 1-2.121 0l-9.637-9.637a1.5 1.5 0 0 1-.44-1.06V4.5a1.5 1.5 0 0 1 1.5-1.5h7.425a1.5 1.5 0 0 1 1.06.44l9.638 9.636a1.5 1.5 0 0 1 0 2.121l-7.425 7.425ZM8.523 8.25a1.5 1.5 0 1 1-3 0 1.5 1.5 0 0 1 3 0Z" class="Icon"/>
  </g>
</svg>
